dist/svg/usb.svg

<!-- Generated by Trend Micro Style Portal -->
<svg version="1.1" xmlns="http://www.w3.org/2000/svg" width="16" height="16" viewBox="0 0 16 16">
  <title>usb</title>
  <path fill="rgb(34,34,34)" d="M16 4h-4v4l1.25 0v0.642l-4.5 1.35v-5.992h2.25l-3-4-3 4 2.25 0v6.585l-4.5-0.901v-0.833c0.732-0.297 1.25-1.013 1.25-1.852 0-1.105-0.895-2-2-2s-2 0.895-2 2c0 0.839 0.518 1.555 1.25 1.852v2.064l6 1.2v0.033c-0.732 0.297-1.25 1.013-1.25 1.852 0 1.105 0.895 2 2 2s2-0.895 2-2c0-0.839-0.518-1.555-1.25-1.852v-0.59l6-1.8v-1.758h1.25v-4z"></path>
</svg>

<svg width="16" height="16" viewBox="0 0 16 16" fill="rgb(34, 34, 34)" xmlns="http://www.w3.org/2000/svg"><title>USB</title><g clip-path="url(#clip0_271_112)"><path d="M16 4H12V8H13.25V8.642L8.75 9.992V4H11L8 0L5 4H7.25V10.585L2.75 9.684V8.851C3.482 8.554 4 7.838 4 6.999C4 5.894 3.105 4.999 2 4.999C0.895 4.999 0 5.894 0 6.999C0 7.838 0.518 8.554 1.25 8.851V10.915L7.25 12.115V12.148C6.518 12.445 6 13.161 6 14C6 15.105 6.895 16 8 16C9.105 16 10 15.105 10 14C10 13.161 9.482 12.445 8.75 12.148V11.558L14.75 9.758V8H16V4Z" fill="rgb(34, 34, 34)" fill-opacity="1.00"/></g><defs><clipPath id="clip0_271_112"><rect width="16" height="16" fill="rgb(34, 34, 34)"/></clipPath></defs></svg>
